%
(Header)
(Generated by gcodetools from Inkscape.)
(Using default header. To add your own header create file "header" in the output dir.)
M3
(Header end.)
G21 (All units in mm)

(Start cutting path id: path5636)
(Mein eigener Kommentar)
(Change tool to Default tool)

G00 Z 10.0000
G00 X 105.2463 Y 192.3325

G01 Z -0.1250 F 100.0000(Penetrate)
G01 X 105.2463 Y 163.5342 Z -0.1250 F 400.0000
G01 X 111.2986 Y 163.5342 Z -0.1250
G03 X 118.5176 Y 164.6266 Z -0.1250 I -0.0000 J 24.3992
G03 X 122.5104 Y 167.0069 Z -0.1250 I -2.9262 J 9.4476
G03 X 124.9675 Y 170.9505 Z -0.1250 I -6.7505 J 6.9434
G03 X 126.0822 Y 177.9706 Z -0.1250 I -21.5477 J 7.0201
G03 X 124.9685 Y 184.9391 Z -0.1250 I -22.3580 J 0.0000
G03 X 122.5104 Y 188.8598 Z -0.1250 I -9.1353 J -2.9965
G03 X 118.5176 Y 191.2401 Z -0.1250 I -6.9190 J -7.0673
G03 X 111.2986 Y 192.3325 Z -0.1250 I -7.2189 J -23.3069
G01 X 105.2463 Y 192.3325 Z -0.1250
G00 Z 10.0000

(Change tool to Default tool)

G00 Z 10.0000
G00 X 100.2357 Y 196.4501

G01 Z -0.1250 F 100.0000(Penetrate)
G01 X 110.5297 Y 196.4501 Z -0.1250 F 400.0000
G02 X 120.7522 Y 195.0259 Z -0.1250 I 0.0000 J -37.4006
G02 X 126.3303 Y 191.9604 Z -0.1250 I -3.8876 J -13.6816
G02 X 129.8246 Y 186.8024 Z -0.1250 I -8.3554 J -9.4231
G02 X 131.3656 Y 177.9706 Z -0.1250 I -24.5377 J -8.8318
G02 X 129.8170 Y 169.0922 Z -0.1250 I -26.2252 J 0.0000
G02 X 126.3055 Y 163.9063 Z -0.1250 I -11.9170 J 4.2876
G02 X 120.7062 Y 160.8366 Z -0.1250 I -9.5295 J 10.7405
G02 X 110.5297 Y 159.4167 Z -0.1250 I -10.1765 J 35.7584
G01 X 100.2357 Y 159.4167 Z -0.1250
G01 X 100.2357 Y 196.4501 Z -0.1250
G00 Z 10.0000

(End cutting path id: path5636)


(Start cutting path id: path5636)
(Mein eigener Kommentar)
(Change tool to Default tool)

G00 Z 10.0000
G00 X 105.2463 Y 192.3325

G01 Z -0.1250 F 100.0000(Penetrate)
G01 X 105.2463 Y 163.5342 Z -0.1250 F 400.0000
G01 X 111.2986 Y 163.5342 Z -0.1250
G03 X 118.5176 Y 164.6266 Z -0.1250 I -0.0000 J 24.3992
G03 X 122.5104 Y 167.0069 Z -0.1250 I -2.9262 J 9.4476
G03 X 124.9675 Y 170.9505 Z -0.1250 I -6.7505 J 6.9434
G03 X 126.0822 Y 177.9706 Z -0.1250 I -21.5477 J 7.0201
G03 X 124.9685 Y 184.9391 Z -0.1250 I -22.3580 J 0.0000
G03 X 122.5104 Y 188.8598 Z -0.1250 I -9.1353 J -2.9965
G03 X 118.5176 Y 191.2401 Z -0.1250 I -6.9190 J -7.0673
G03 X 111.2986 Y 192.3325 Z -0.1250 I -7.2189 J -23.3069
G01 X 105.2463 Y 192.3325 Z -0.1250
G00 Z 10.0000

(Change tool to Default tool)

G00 Z 10.0000
G00 X 100.2357 Y 196.4501

G01 Z -0.1250 F 100.0000(Penetrate)
G01 X 110.5297 Y 196.4501 Z -0.1250 F 400.0000
G02 X 120.7522 Y 195.0259 Z -0.1250 I 0.0000 J -37.4006
G02 X 126.3303 Y 191.9604 Z -0.1250 I -3.8876 J -13.6816
G02 X 129.8246 Y 186.8024 Z -0.1250 I -8.3554 J -9.4231
G02 X 131.3656 Y 177.9706 Z -0.1250 I -24.5377 J -8.8318
G02 X 129.8170 Y 169.0922 Z -0.1250 I -26.2252 J 0.0000
G02 X 126.3055 Y 163.9063 Z -0.1250 I -11.9170 J 4.2876
G02 X 120.7062 Y 160.8366 Z -0.1250 I -9.5295 J 10.7405
G02 X 110.5297 Y 159.4167 Z -0.1250 I -10.1765 J 35.7584
G01 X 100.2357 Y 159.4167 Z -0.1250
G01 X 100.2357 Y 196.4501 Z -0.1250
G00 Z 10.0000

(End cutting path id: path5636)



(Footer)
M5
G00 X0.0000 Y0.0000
M2
(Using default footer. To add your own footer create file "footer" in the output dir.)
(end)
%